X: 1
T:Raggety Anne
% Nottingham Music Database
S:Kevin Briggs, via EF
M:4/4
L:1/4
K:D
A/2F/2|"D"D/2F/2A/2F/2 BA/2F/2|"D"D/2F/2A/2F/2 BA/2F/2|"D"D/2F/2A/2F/2 BA/2F/2\
|"A7"A/2cA/2 c3/2B/2|
"A7"A/2B/2c/2B/2 A/2B/2c/2B/2|"A7"A/2B/2c/2B/2 A/2B/2c/2B/2|\
"A7"A/2B/2c/2d/2 e/2g/2f/2e/2|
"D"d/2c/2d/2e/2 "A7"d/2B/2A/2F/2|"D"D/2F/2A/2F/2 BA/2F/2|\
"D"D/2F/2A/2F/2 BA/2F/2|"D"D/2F/2A/2F/2 BA/2F/2|
"A7"A/2cA/2 c3/2B/2|"A7"A/2B/2c/2B/2 A/2B/2c/2B/2|\
"A7"A/2B/2c/2B/2 A/2B/2c/2B/2|"A7"A/2B/2c/2d/2 e/2g/2f/2e/2|
"D"d3f/2g/2|"D"a/2f/2A/2a/2 f/2A/2a/2A/2|"D"f/2d/2A/2f/2 d/2A/2f/2A/2|\
"D7"d/2=c/2A/2d/2 "e"^c"f#"=c|
"G"B3e/2f/2|"A7"g/2f/2e/2f/2 g/2f/2e/2f/2|"A7"g/2f/2e/2d/2 ce/2f/2|\
"A7"g/2f/2e/2d/2 cB|
"A7"A3f/2g/2|"D"a/2f/2A/2a/2 f/2A/2a/2A/2|"D"f/2d/2A/2f/2 d/2A/2f/2A/2|\
"D7"d/2=c/2A/2d/2 "e"^c"f#"=c|
"G"B3e/2f/2|"A7"g/2f/2e/2f/2 g/2f/2e/2f/2|"A7"g/2f/2e/2f/2 g2|\
"A7"A/2^G/2A/2^A/2 Bc|"D"d3||


